src/assets/svg/icons/fa/nuevos/classic/thin/table-tree classic thin.svg

<svg xmlns="http://www.w3.org/2000/svg" viewBox="0 0 512 512"><!--! Font Awesome Pro 6.4.0 by @fontawesome - https://fontawesome.com License - https://fontawesome.com/license (Commercial License) Copyright 2023 Fonticons, Inc. --><path d="M64 48C37.5 48 16 69.5 16 96v64H496V96c0-26.5-21.5-48-48-48H64zM16 176V416c0 26.5 21.5 48 48 48H448c26.5 0 48-21.5 48-48V176H112v72c0 13.3 10.7 24 24 24h48c4.4 0 8 3.6 8 8s-3.6 8-8 8H136c-9 0-17.3-3-24-8v64c0 13.3 10.7 24 24 24H248c4.4 0 8 3.6 8 8s-3.6 8-8 8H136c-22.1 0-40-17.9-40-40V248 176H16zM0 96C0 60.7 28.7 32 64 32H448c35.3 0 64 28.7 64 64V416c0 35.3-28.7 64-64 64H64c-35.3 0-64-28.7-64-64V96zM224 280c0-4.4 3.6-8 8-8H408c4.4 0 8 3.6 8 8s-3.6 8-8 8H232c-4.4 0-8-3.6-8-8zm72 88H408c4.4 0 8 3.6 8 8s-3.6 8-8 8H296c-4.4 0-8-3.6-8-8s3.6-8 8-8z"/></svg>

<svg xmlns="http://www.w3.org/2000/svg" viewBox="0 0 512 512"><path d="M224 280C224 275.6 227.6 272 232 272H408C412.4 272 416 275.6 416 280C416 284.4 412.4 288 408 288H232C227.6 288 224 284.4 224 280zM408 368C412.4 368 416 371.6 416 376C416 380.4 412.4 384 408 384H296C291.6 384 288 380.4 288 376C288 371.6 291.6 368 296 368H408zM0 96C0 60.65 28.65 32 64 32H448C483.3 32 512 60.65 512 96V416C512 451.3 483.3 480 448 480H64C28.65 480 0 451.3 0 416V96zM16 96V160H496V96C496 69.49 474.5 48 448 48H64C37.49 48 16 69.49 16 96zM16 176V416C16 442.5 37.49 464 64 464H448C474.5 464 496 442.5 496 416V176H112V248C112 261.3 122.7 272 136 272H184C188.4 272 192 275.6 192 280C192 284.4 188.4 288 184 288H136C126.1 288 118.7 285 112 280V344C112 357.3 122.7 368 136 368H248C252.4 368 256 371.6 256 376C256 380.4 252.4 384 248 384H136C113.9 384 96 366.1 96 344V176H16z"/></svg>
